X:100
T:Manchester Quadrille p4 Le Union
M:2/4
L:1/16
Q:100
K:G
g2d2 cBce | B3d cBcd | Bdgd cdfa | g2 z2 bgdB | A2 z2 cdfa | g2 z2 edBG | FGA cdef | g6 z2 ||
dBGB d2^d2 | ecAc e2e2 | dBGB dBGB | a2 {^c}d2G2 z2 | dBGB d2^d2 | ecAc e2e2 | d3B AGAB | G2B2G2 z2 ||
dfag fedc | Bdgb d2B2 | c2dc B2cc | Ad^cd E2 z2 | dfag fedc | Bdgb d2g2 | a3g fgaf | g2b2g2 z2 |]

